public/avatar/hat/266.svg

<svg xmlns:xlink="http://www.w3.org/1999/xlink" height="92.9" width="100.7" xmlns="http://www.w3.org/2000/svg"><use height="25.5" transform="translate(20.85 39.05)" width="34.95" xlink:href="#a"/><defs><g id="a" fill-rule="evenodd"><path d="m4.65-1.5.1-.75q.1-.4.4-.4 2.45-.5 4.35-2l.05-.3q0-2.1-2.55-4.2l-.25-.35.05-.2q.15-.45.55-.3 2.6.1 4.95 2.05 2 1.75 2.7 3.65l.05.3Q13.65.4 7.6 2.45h-.3q-.9-.2-1.75-1.35-.9-1.25-.9-2.6" fill="#4f0000" transform="translate(17.8 10.7)"/><path d="M13.95-4.1Q13.1-.85 7.5 1.45 6.8 1.2 6.2.25q-.65-1.1-.45-2 .6-.1 2.6-1.1 1.95-1.05 2.05-1.3.2-2.25-1.6-4.6 3.85 1.55 5.15 4.65" fill="#f9d478" transform="translate(17.8 10.7)"/><path d="M10.3-6.95v.7l-1.5-2.5q1.75.7 2.95 1.75 0 .1-.65-.25l.4.6-.7-.4.1.8-.6-.7" fill="#d80000" transform="translate(17.8 10.7)"/><path d="M11.8-6.95q1.6 1.35 2.15 2.85Q13.1-.85 7.5 1.45L6.2-.3q4.65-.65 6.25-3.9l-.65-2.75" fill="#b78a58" transform="translate(17.8 10.7)"/><path d="m7.3-2.15 1.85-1q.85-.35 1.3-.8l-.65.85-1.05.75q-.9.5-1.6.35l.2-.15H7.3" fill="#fff" transform="translate(17.8 10.7)"/><path d="m-11.2-4.45.05.3q1.9 1.5 4.35 2.05l.4.35.05.8q0 1.4-.9 2.6-.8 1.15-1.7 1.35h-.3Q-15.3.9-16.7-3.45v-.35q.75-1.95 2.75-3.6 2.35-2 4.95-2.1.3-.1.5.3l.1.2-.25.4q-2.55 2.05-2.55 4.15" fill="#4f0000" transform="translate(17.8 10.7)"/><path d="M-15.6-3.55q1.2-3.1 5.1-4.7-1.7 2.4-1.55 4.65L-10-2.3l2.6 1.05q.15.9-.45 2-.65 1-1.3 1.2-5.6-2.3-6.45-5.5" fill="#f9d478" transform="translate(17.8 10.7)"/><path d="M-13.1-6.35q-.75.45-.8.35 1.4-1.4 3.4-2.25-1.3 1.8-1.55 3.05-.1-.5-.3-.55-.4.8-.5.7.35-1 .2-1.1l-.85.6q.45-.65.4-.8" fill="#d80000" transform="translate(17.8 10.7)"/><path d="M-13.25-3.2q.6-1.4 1.15-1.85l.05 1.45L-10-2.3l2.6 1.05q.3 1.5-.1 1.9-4.3-1.8-5.75-3.85" fill="#b78a58" transform="translate(17.8 10.7)"/><path d="m-13-.75-1.15-1.35-.5-.75-.25-.45.65.65 1.2 1.25 1.1 1.15.75.7-.65-.4-1.15-.8" fill="#fff" transform="translate(17.8 10.7)"/><path d="M-7.5-2.7q1.75-.45 2.25.75.15.3-.15.6l-.95 2.2-.5 2.25-.05.4-.45.3-1.65.05q-.35 0-.5-.3-.75-1.75.65-4.65.65-1.45 1.35-1.6" transform="translate(17.8 10.7)"/><path d="M-7.25-1.7q.85-.35 1.15.3-.4.25-.95 2.1-.65 1.8-.4 2.2l-1.15-.05Q-9.45.55-7.25-1.7" fill="#a2a3a2" transform="translate(17.8 10.7)"/><path d="M-7.2-1.75q.85-.25 1.1.35-.4.25-.95 2.1-.65 1.8-.4 2.2h-.6q0-2.95.85-4.65" fill="#686867" transform="translate(17.8 10.7)"/><path d="M6.75-.5q.7 1.5.2 2.75l-1.3-.05Q5.9 1.9 5.1.25q-.7-1.7-1.15-1.85.7-.95 1.5-.55.75.3 1.3 1.65" fill="#a2a3a2" transform="translate(17.8 10.7)"/><path d="M3.4-2.3q.55-1.3 2.4-.9.7.2 1.4 1.65Q8.55 1.2 7.8 3l-.45.3-1.7-.05-.4-.3-.05-.45L4.6.35 3.55-1.7q-.35-.2-.15-.6" transform="translate(17.8 10.7)"/><path d="M6.75-.5q.7 1.5.2 2.75l-1.3-.05Q5.9 1.9 5.1.25q-.7-1.7-1.15-1.85.7-.95 1.5-.55.75.3 1.3 1.65" fill="#686867" transform="translate(17.8 10.7)"/><path d="M2.5-4.35q-.15 2-2.45 2.4-2.8.5-4-2.05L-4-4.1l.05-.15 2.7-5.75.35-.7.45.7Q2-6.15 2.5-4.35" fill="#050505" transform="translate(17.8 10.7)"/><path d="m-2.6-4.55 1.85-3.8q1.65 2.45 2 3.8Q.95-3.3-.6-3.3q-1.6 0-2-1.25" fill="#cccecc" transform="translate(17.8 10.7)"/><path d="m-.6-3.3-.15-5q1.65 2.5 2 3.75Q.95-3.3-.6-3.3" fill="#7c7c7c" transform="translate(17.8 10.7)"/><path d="m1.05-5.3.2.05q3.8 1.85 5.35 7.6l-.05.45-.3.2q-4.15 1.1-13.8.35l-.4-.2L-8 2.7q1.25-5.8 5.15-7.85l.1-.05 3.8-.1" transform="translate(17.8 10.7)"/><path d="M-6.8 2.3q1.3-4.85 4.35-6.5L.9-4.25q2.8.8 4.3 6.45-4.15 1.05-12 .1" fill="#a2a3a2" transform="translate(17.8 10.7)"/><path d="m-6.8 2.3.75-2.3Q-2.8 1.7.4.6 1 0 .65-1.9.25-3.8-.4-4.3l1.3.05q2.8.8 4.3 6.45-4.15 1.05-12 .1" fill="#686867" transform="translate(17.8 10.7)"/><path d="m-14.25 3.55-.3-.45.55-.05 4.85.15q1.3.8.65 2.45-.6 2.05-2.75 1.9h-.1l-.1-.1-2.8-3.9" fill="#050505" transform="translate(17.8 10.7)"/><path d="M-11.15 6.5-13 3.85l3.25.1q.75.65.2 1.7-.65 1.05-1.6.85" fill="#cccecc" transform="translate(17.8 10.7)"/><path d="m-12.8 3.85 3.3 1.65q-.6 1.15-1.65 1L-13 3.85h.2" fill="#7c7c7c" transform="translate(17.8 10.7)"/><path d="m-17.5 8.9-.3-.45.6-.05 4.8.15q1.3.8.7 2.45-.65 2.1-2.75 1.95h-.1l-.1-.15-2.85-3.9" fill="#050505" transform="translate(17.8 10.7)"/><path d="m-14.35 11.85-1.9-2.6 3.3.05q.75.65.15 1.7-.6 1.05-1.55.85" fill="#cccecc" transform="translate(17.8 10.7)"/><path d="m-16.05 9.25 3.4 1.25q-.3 1.6-1.7 1.35l-1.9-2.6h.2" fill="#7c7c7c" transform="translate(17.8 10.7)"/><path d="m13.85 3.1-.35.45q-1.75 3-2.9 4l-.05.1h-.15q-2.15.2-2.8-1.95-.6-1.65.7-2.5l4.9-.15.65.05" fill="#050505" transform="translate(17.8 10.7)"/><path d="M10.3 6.55q-.95.2-1.55-.85-.65-1.1.1-1.75l3.4-.1-1.95 2.7" fill="#cccecc" transform="translate(17.8 10.7)"/><path d="M10.3 6.55q-.95.2-1.55-.85-.65-1.1.1-1.75l3.4-.1-1.95 2.7" fill="#7c7c7c" transform="translate(17.8 10.7)"/><path d="m17.15 8.6-.35.5-2.85 4-.1.05h-.1q-2.15.2-2.85-1.95-.6-1.65.7-2.55 1.4-.35 4.95-.1l.6.05" fill="#050505" transform="translate(17.8 10.7)"/><path d="M13.65 12.05q-1 .2-1.6-.85-.65-1.1.15-1.75 1-.25 3.3-.05l-1.85 2.65" fill="#cccecc" transform="translate(17.8 10.7)"/><path d="M13.65 12.05q-1 .2-1.6-.85-.65-1.1.15-1.75 1-.25 3.3-.05l-1.85 2.65" fill="#7c7c7c" transform="translate(17.8 10.7)"/><path d="M-.35 11.9-5.5 6.55l10.5.2-5.35 5.15" transform="translate(17.8 10.7)"/><path d="M3.35-.3q.4-.1.55.2l1.6 2.15h2l.25.1L11.5 6.9l4 5.65.05.25-.15.45q-.75.65-2.5 1l-1.75.25-.5-.3-.15-.35q-2.55-5-4-6.25-12.85-.25-13.6-.05-1.65 1-3.55 6.9-.15.35-.6.35-3.2-.65-4.15-1.25l-.25-.4.05-.15q4.7-8.65 6.35-10 .25-.4 2.6-.5L-4.2-.05l.5-.1.4.45.35 2.1 5.65-.05.25-2.2.4-.45" transform="translate(17.8 10.7)"/><path d="m3.5 3.35.35-1.75 1.2 1.45 2.15.05 3.3 4.2 3.8 5.35-2.9.75Q8.8 8.2 6.9 6.6l-14.55.1q-1.9 1.1-3.9 6.95l-2.85-.85 3.05-5.25Q-8.7 3.4-8.6 3.75l2.4-.25 2-2.05.45 2 7.25-.1" fill="#a2a3a2" transform="translate(17.8 10.7)"/><path d="m7.2 3.1 3.3 4.2 3.8 5.35-2.9.75Q8.8 8.2 6.9 6.6l-14.55.1q-1.9 1.1-3.9 6.95L-13 13.3q2.15-5.95 5.3-8.05l12.75-.5-1.2-3.15 1.2 1.45 2.15.05" fill="#686867" transform="translate(17.8 10.7)"/><path d="M-4.2 6.35h8.1l-4.2 4.1-3.9-4.1" fill="#a2a3a2" transform="translate(17.8 10.7)"/><path d="m-.3 10.45-.55-.55 3.4-3H-3.7l-.75-.6h8.5L-.3 10.45m-3.9-9 .5 2.05h-1.45l.45-1q.5-.75.45-1.05h.05" fill="#686867" transform="translate(17.8 10.7)"/><path d="m-.9-5.95.35-.7.4.65L2.6-.65Q2.5 1.2.3 1.65q-2.7.4-3.75-1.95l-.1-.1.05-.15q.45-1.5 2.6-5.4" fill="#050505" transform="translate(17.8 10.7)"/><path d="m-2.2-.8 1.75-3.6 1.9 3.6Q1.15.4-.35.4-1.8.35-2.2-.8" fill="#cccecc" transform="translate(17.8 10.7)"/><path d="m-.6-4.15.15-.25 1.9 3.6Q1.15.55-.6.35v-4.5" fill="#7c7c7c" transform="translate(17.8 10.7)"/><path d="m-2.3-4.05-.2.75-.9.65L-5.5-.3l.55-1.25.9-1.15.95-.85.8-.5m1.25.95.05.05-.05 1.2L-1.2-.4q-.65-.3-.45-.9l.6-1.8m-.05-4.25-.4 1.75-.4.05.8-1.8M-8.3 1l.05 1.25h-.4q-.05-1.05.45-2.3L-8.3 1m-3.65 3.1 1.35-.15-.25.5-1.1-.35m-3.4 5.3h-.05l1.65-.15-.2.35-1.4-.2m10.4-7.1.1-.1-.35.85q-.25.4-.65.3l.9-1.05M3.2 4.15l-6.5-.05.05-.45h2.4L2.1 3.6h1.15l.15.25-.2.3m-6.25 3.1L-3 7.2l1.2.75q1.25.7 1.45.95l-.55.55-.75-.85-1.4-1.35" fill="#fff" transform="translate(17.8 10.7)"/></g></defs></svg>

<?xml version="1.0" encoding="UTF-8" standalone="no"?>
<svg xmlns:xlink="http://www.w3.org/1999/xlink" height="92.9px" width="100.7px" xmlns="http://www.w3.org/2000/svg">
  <g transform="matrix(1.0, 0.0, 0.0, 1.0, 38.65, 49.75)">
    <use height="25.5" transform="matrix(1.0, 0.0, 0.0, 1.0, -17.8, -10.7)" width="34.95" xlink:href="#shape0"/>
  </g>
  <defs>
    <g id="shape0" transform="matrix(1.0, 0.0, 0.0, 1.0, 17.8, 10.7)">
      <path d="M4.65 -1.5 L4.75 -2.25 Q4.85 -2.65 5.15 -2.65 7.6 -3.15 9.5 -4.65 L9.55 -4.95 Q9.55 -7.05 7.0 -9.15 L6.75 -9.5 6.8 -9.7 Q6.95 -10.15 7.35 -10.0 9.95 -9.9 12.3 -7.95 14.3 -6.2 15.0 -4.3 L15.05 -4.0 Q13.65 0.4 7.6 2.45 L7.3 2.45 Q6.4 2.25 5.55 1.1 4.65 -0.15 4.65 -1.5" fill="#4f0000" fill-rule="evenodd" stroke="none"/>
      <path d="M13.95 -4.1 Q13.1 -0.85 7.5 1.45 6.8 1.2 6.2 0.25 5.55 -0.85 5.75 -1.75 6.35 -1.85 8.35 -2.85 10.3 -3.9 10.4 -4.15 10.6 -6.4 8.8 -8.75 12.65 -7.2 13.95 -4.1" fill="#f9d478" fill-rule="evenodd" stroke="none"/>
      <path d="M10.3 -6.95 L10.3 -6.25 8.8 -8.75 Q10.55 -8.05 11.75 -7.0 11.75 -6.9 11.1 -7.25 L11.5 -6.65 10.8 -7.05 10.9 -6.25 10.3 -6.95" fill="#d80000" fill-rule="evenodd" stroke="none"/>
      <path d="M11.8 -6.95 Q13.4 -5.6 13.95 -4.1 13.1 -0.85 7.5 1.45 L6.2 -0.3 Q10.85 -0.95 12.45 -4.2 L11.8 -6.95" fill="#b78a58" fill-rule="evenodd" stroke="none"/>
      <path d="M7.3 -2.15 L9.15 -3.15 Q10.0 -3.5 10.45 -3.95 L9.8 -3.1 8.75 -2.35 Q7.85 -1.85 7.15 -2.0 L7.35 -2.15 7.3 -2.15" fill="#ffffff" fill-rule="evenodd" stroke="none"/>
      <path d="M-11.2 -4.45 L-11.15 -4.15 Q-9.25 -2.65 -6.8 -2.1 L-6.4 -1.75 -6.35 -0.95 Q-6.35 0.45 -7.25 1.65 -8.05 2.8 -8.95 3.0 L-9.25 3.0 Q-15.3 0.9 -16.7 -3.45 L-16.7 -3.8 Q-15.95 -5.75 -13.95 -7.4 -11.6 -9.4 -9.0 -9.5 -8.7 -9.6 -8.5 -9.2 L-8.4 -9.0 -8.65 -8.6 Q-11.2 -6.55 -11.2 -4.45" fill="#4f0000" fill-rule="evenodd" stroke="none"/>
      <path d="M-15.6 -3.55 Q-14.4 -6.65 -10.5 -8.25 -12.2 -5.85 -12.05 -3.6 L-10.0 -2.3 -7.4 -1.25 Q-7.25 -0.35 -7.85 0.75 -8.5 1.75 -9.15 1.95 -14.75 -0.35 -15.6 -3.55" fill="#f9d478" fill-rule="evenodd" stroke="none"/>
      <path d="M-13.1 -6.35 Q-13.85 -5.9 -13.9 -6.0 -12.5 -7.4 -10.5 -8.25 -11.8 -6.45 -12.05 -5.2 -12.15 -5.7 -12.35 -5.75 -12.75 -4.95 -12.85 -5.05 -12.5 -6.05 -12.65 -6.15 L-13.5 -5.55 Q-13.05 -6.2 -13.1 -6.35" fill="#d80000" fill-rule="evenodd" stroke="none"/>
      <path d="M-13.25 -3.2 Q-12.65 -4.6 -12.1 -5.05 L-12.05 -3.6 -10.0 -2.3 -7.4 -1.25 Q-7.1 0.25 -7.5 0.65 -11.8 -1.15 -13.25 -3.2" fill="#b78a58" fill-rule="evenodd" stroke="none"/>
      <path d="M-13.0 -0.75 L-14.15 -2.1 -14.65 -2.85 -14.9 -3.3 -14.25 -2.65 -13.05 -1.4 -11.95 -0.25 -11.2 0.45 -11.85 0.05 -13.0 -0.75" fill="#ffffff" fill-rule="evenodd" stroke="none"/>
      <path d="M-7.5 -2.7 Q-5.75 -3.15 -5.25 -1.95 -5.1 -1.65 -5.4 -1.35 L-6.35 0.85 -6.85 3.1 -6.9 3.5 -7.35 3.8 -9.0 3.85 Q-9.35 3.85 -9.5 3.55 -10.25 1.8 -8.85 -1.1 -8.2 -2.55 -7.5 -2.7" fill="#000000" fill-rule="evenodd" stroke="none"/>
      <path d="M-7.25 -1.7 Q-6.4 -2.05 -6.1 -1.4 -6.5 -1.15 -7.05 0.7 -7.7 2.5 -7.45 2.9 L-8.6 2.85 Q-9.45 0.55 -7.25 -1.7" fill="#a2a3a2" fill-rule="evenodd" stroke="none"/>
      <path d="M-7.2 -1.75 Q-6.35 -2.0 -6.1 -1.4 -6.5 -1.15 -7.05 0.7 -7.7 2.5 -7.45 2.9 L-8.05 2.9 Q-8.05 -0.05 -7.2 -1.75" fill="#686867" fill-rule="evenodd" stroke="none"/>
      <path d="M6.75 -0.5 Q7.45 1.0 6.95 2.25 L5.65 2.2 Q5.9 1.9 5.1 0.25 4.4 -1.45 3.95 -1.6 4.65 -2.55 5.45 -2.15 6.2 -1.85 6.75 -0.5" fill="#a2a3a2" fill-rule="evenodd" stroke="none"/>
      <path d="M3.4 -2.3 Q3.95 -3.6 5.8 -3.2 6.5 -3.0 7.2 -1.55 8.55 1.2 7.8 3.0 L7.35 3.3 5.65 3.25 5.25 2.95 5.2 2.5 4.6 0.35 3.55 -1.7 Q3.2 -1.9 3.4 -2.3" fill="#000000" fill-rule="evenodd" stroke="none"/>
      <path d="M6.75 -0.5 Q7.45 1.0 6.95 2.25 L5.65 2.2 Q5.9 1.9 5.1 0.25 4.4 -1.45 3.95 -1.6 4.65 -2.55 5.45 -2.15 6.2 -1.85 6.75 -0.5" fill="#686867" fill-rule="evenodd" stroke="none"/>
      <path d="M2.5 -4.35 Q2.35 -2.35 0.05 -1.95 -2.75 -1.45 -3.95 -4.0 L-4.0 -4.1 -3.95 -4.25 -1.25 -10.0 -0.9 -10.7 -0.45 -10.0 Q2.0 -6.15 2.5 -4.35" fill="#050505" fill-rule="evenodd" stroke="none"/>
      <path d="M-2.6 -4.55 L-0.75 -8.35 Q0.9 -5.9 1.25 -4.55 0.95 -3.3 -0.6 -3.3 -2.2 -3.3 -2.6 -4.55" fill="#cccecc" fill-rule="evenodd" stroke="none"/>
      <path d="M-0.6 -3.3 L-0.75 -8.3 Q0.9 -5.8 1.25 -4.55 0.95 -3.3 -0.6 -3.3" fill="#7c7c7c" fill-rule="evenodd" stroke="none"/>
      <path d="M1.05 -5.3 L1.25 -5.25 Q5.05 -3.4 6.6 2.35 L6.55 2.8 6.25 3.0 Q2.1 4.1 -7.55 3.35 L-7.95 3.15 -8.0 2.7 Q-6.75 -3.1 -2.85 -5.15 L-2.75 -5.2 1.05 -5.3" fill="#000000" fill-rule="evenodd" stroke="none"/>
      <path d="M-6.8 2.3 Q-5.5 -2.55 -2.45 -4.2 L0.9 -4.25 Q3.7 -3.45 5.2 2.2 1.05 3.25 -6.8 2.3" fill="#a2a3a2" fill-rule="evenodd" stroke="none"/>
      <path d="M-6.8 2.3 L-6.05 0.0 Q-2.8 1.7 0.4 0.6 1.0 0.0 0.65 -1.9 0.25 -3.8 -0.4 -4.3 L0.9 -4.25 Q3.7 -3.45 5.2 2.2 1.05 3.25 -6.8 2.3" fill="#686867" fill-rule="evenodd" stroke="none"/>
      <path d="M-14.25 3.55 L-14.55 3.1 -14.0 3.05 -9.15 3.2 Q-7.85 4.0 -8.5 5.65 -9.1 7.7 -11.25 7.55 L-11.35 7.55 -11.45 7.45 -14.25 3.55" fill="#050505" fill-rule="evenodd" stroke="none"/>
      <path d="M-11.15 6.5 L-13.0 3.85 -9.75 3.95 Q-9.0 4.6 -9.55 5.65 -10.2 6.7 -11.15 6.5" fill="#cccecc" fill-rule="evenodd" stroke="none"/>
      <path d="M-12.8 3.85 L-9.5 5.5 Q-10.1 6.65 -11.15 6.5 L-13.0 3.85 -12.8 3.85" fill="#7c7c7c" fill-rule="evenodd" stroke="none"/>
      <path d="M-17.5 8.9 L-17.8 8.45 -17.2 8.4 -12.4 8.55 Q-11.1 9.35 -11.7 11.0 -12.35 13.1 -14.45 12.95 L-14.55 12.95 -14.65 12.8 -17.5 8.9" fill="#050505" fill-rule="evenodd" stroke="none"/>
      <path d="M-14.35 11.85 L-16.25 9.25 -12.95 9.3 Q-12.2 9.95 -12.8 11.0 -13.4 12.05 -14.35 11.85" fill="#cccecc" fill-rule="evenodd" stroke="none"/>
      <path d="M-16.05 9.25 L-12.65 10.5 Q-12.95 12.1 -14.35 11.85 L-16.25 9.25 -16.05 9.25" fill="#7c7c7c" fill-rule="evenodd" stroke="none"/>
      <path d="M13.85 3.1 L13.5 3.55 Q11.75 6.55 10.6 7.55 L10.55 7.65 10.4 7.65 Q8.25 7.85 7.6 5.7 7.0 4.05 8.3 3.2 L13.2 3.05 13.85 3.1" fill="#050505" fill-rule="evenodd" stroke="none"/>
      <path d="M10.3 6.55 Q9.35 6.75 8.75 5.7 8.1 4.6 8.85 3.95 L12.25 3.85 10.3 6.55" fill="#cccecc" fill-rule="evenodd" stroke="none"/>
      <path d="M10.3 6.55 Q9.35 6.75 8.75 5.7 8.1 4.6 8.85 3.95 L12.25 3.85 10.3 6.55" fill="#7c7c7c" fill-rule="evenodd" stroke="none"/>
      <path d="M17.15 8.6 L16.8 9.1 13.95 13.1 13.85 13.15 13.75 13.15 Q11.6 13.35 10.9 11.2 10.3 9.55 11.6 8.65 13.0 8.3 16.55 8.55 L17.15 8.6" fill="#050505" fill-rule="evenodd" stroke="none"/>
      <path d="M13.65 12.05 Q12.65 12.25 12.05 11.2 11.4 10.1 12.2 9.45 13.2 9.2 15.5 9.4 L13.65 12.05" fill="#cccecc" fill-rule="evenodd" stroke="none"/>
      <path d="M13.65 12.05 Q12.65 12.25 12.05 11.2 11.4 10.1 12.2 9.45 13.2 9.2 15.5 9.4 L13.65 12.05" fill="#7c7c7c" fill-rule="evenodd" stroke="none"/>
      <path d="M-0.35 11.9 L-5.5 6.55 5.0 6.75 -0.35 11.9" fill="#000000" fill-rule="evenodd" stroke="none"/>
      <path d="M3.35 -0.3 Q3.75 -0.4 3.9 -0.1 L5.5 2.05 7.5 2.05 7.75 2.15 11.5 6.9 15.5 12.55 15.55 12.8 15.4 13.25 Q14.65 13.9 12.9 14.25 L11.15 14.5 10.65 14.2 10.5 13.85 Q7.95 8.85 6.5 7.6 -6.35 7.35 -7.1 7.55 -8.75 8.55 -10.65 14.45 -10.8 14.8 -11.25 14.8 -14.45 14.15 -15.4 13.55 L-15.65 13.15 -15.6 13.0 Q-10.9 4.35 -9.25 3.0 -9.0 2.6 -6.65 2.5 L-4.2 -0.05 -3.7 -0.15 -3.3 0.3 -2.95 2.4 2.7 2.35 2.95 0.15 3.35 -0.3" fill="#000000" fill-rule="evenodd" stroke="none"/>
      <path d="M3.5 3.35 L3.85 1.6 5.05 3.05 7.2 3.1 10.5 7.3 14.3 12.65 11.4 13.4 Q8.8 8.2 6.9 6.6 L-7.65 6.7 Q-9.55 7.8 -11.55 13.65 L-14.4 12.8 -11.35 7.55 Q-8.7 3.4 -8.6 3.75 L-6.2 3.5 -4.2 1.45 -3.75 3.45 3.5 3.35" fill="#a2a3a2" fill-rule="evenodd" stroke="none"/>
      <path d="M7.2 3.1 L10.5 7.3 14.3 12.65 11.4 13.4 Q8.8 8.2 6.9 6.6 L-7.65 6.7 Q-9.55 7.8 -11.55 13.65 L-13.0 13.3 Q-10.85 7.35 -7.7 5.25 L5.05 4.75 3.85 1.6 5.05 3.05 7.2 3.1" fill="#686867" fill-rule="evenodd" stroke="none"/>
      <path d="M-4.2 6.35 L3.9 6.35 -0.3 10.45 -4.2 6.35" fill="#a2a3a2" fill-rule="evenodd" stroke="none"/>
      <path d="M-0.3 10.45 L-0.85 9.9 2.55 6.9 -3.7 6.9 -4.45 6.3 4.05 6.3 -0.3 10.45" fill="#686867" fill-rule="evenodd" stroke="none"/>
      <path d="M-4.2 1.45 L-3.7 3.5 -5.15 3.5 -4.7 2.5 Q-4.2 1.75 -4.25 1.45 L-4.2 1.45" fill="#686867" fill-rule="evenodd" stroke="none"/>
      <path d="M-0.9 -5.95 L-0.55 -6.65 -0.15 -6.0 2.6 -0.65 Q2.5 1.2 0.3 1.65 -2.4 2.05 -3.45 -0.3 L-3.55 -0.4 -3.5 -0.55 Q-3.05 -2.05 -0.9 -5.95" fill="#050505" fill-rule="evenodd" stroke="none"/>
      <path d="M-2.2 -0.8 L-0.45 -4.4 1.45 -0.8 Q1.15 0.4 -0.35 0.4 -1.8 0.35 -2.2 -0.8" fill="#cccecc" fill-rule="evenodd" stroke="none"/>
      <path d="M-0.6 -4.15 L-0.45 -4.4 1.45 -0.8 Q1.15 0.55 -0.6 0.35 L-0.6 -4.15" fill="#7c7c7c" fill-rule="evenodd" stroke="none"/>
      <path d="M-2.3 -4.05 L-2.5 -3.3 -3.4 -2.65 -5.5 -0.3 -4.95 -1.55 -4.05 -2.7 -3.1 -3.55 -2.3 -4.05" fill="#ffffff" fill-rule="evenodd" stroke="none"/>
      <path d="M-1.05 -3.1 L-1.0 -3.05 -1.05 -1.85 -1.2 -0.4 Q-1.85 -0.7 -1.65 -1.3 L-1.05 -3.1" fill="#ffffff" fill-rule="evenodd" stroke="none"/>
      <path d="M-1.1 -7.35 L-1.5 -5.6 -1.9 -5.55 -1.1 -7.35" fill="#ffffff" fill-rule="evenodd" stroke="none"/>
      <path d="M-8.3 1.0 L-8.25 2.25 -8.65 2.25 Q-8.7 1.2 -8.2 -0.05 L-8.3 1.0" fill="#ffffff" fill-rule="evenodd" stroke="none"/>
      <path d="M-11.95 4.1 L-10.6 3.95 -10.85 4.45 -11.95 4.1" fill="#ffffff" fill-rule="evenodd" stroke="none"/>
      <path d="M-15.35 9.4 L-15.4 9.4 -13.75 9.25 -13.95 9.6 -15.35 9.4" fill="#ffffff" fill-rule="evenodd" stroke="none"/>
      <path d="M-4.95 2.3 L-4.85 2.2 -5.2 3.05 Q-5.45 3.45 -5.85 3.35 L-4.95 2.3" fill="#ffffff" fill-rule="evenodd" stroke="none"/>
      <path d="M3.2 4.15 L-3.3 4.1 -3.25 3.65 -0.85 3.65 2.1 3.6 3.25 3.6 3.4 3.85 3.2 4.15" fill="#ffffff" fill-rule="evenodd" stroke="none"/>
      <path d="M-3.05 7.25 L-3.0 7.2 -1.8 7.95 Q-0.55 8.65 -0.35 8.9 L-0.9 9.45 -1.65 8.6 -3.05 7.25" fill="#ffffff" fill-rule="evenodd" stroke="none"/>
    </g>
  </defs>
</svg>
